apps/scalable/griffith.svg

<svg xmlns="http://www.w3.org/2000/svg" style="isolation:isolate" width="256" height="256"><defs><filter id="a" width="270.648" height="254.338" x="-7.32" y="2.95" filterUnits="userSpaceOnUse"><feGaussianBlur xmlns="http://www.w3.org/2000/svg" in="SourceGraphic" stdDeviation="4.294"/><feOffset xmlns="http://www.w3.org/2000/svg" dy="4" result="pf_100_offsetBlur"/><feFlood xmlns="http://www.w3.org/2000/svg" flood-opacity=".4"/><feComposite xmlns="http://www.w3.org/2000/svg" in2="pf_100_offsetBlur" operator="in" result="pf_100_dropShadow"/><feBlend xmlns="http://www.w3.org/2000/svg" in="SourceGraphic" in2="pf_100_dropShadow"/></filter></defs><g filter="url(#a)"><linearGradient id="b" x1=".5" x2=".5" y1="-.036" y2="1.036" gradientTransform="matrix(244.648 0 0 228.338 5.676 11.947)" gradientUnits="userSpaceOnUse"><stop offset="0%"/><stop offset="100%" stop-color="#333"/></linearGradient><path fill="url(#b)" d="M165.685 11.947c74.055 0 84.639 10.557 84.639 84.544v59.251c0 73.986-10.584 84.543-84.639 84.543h-75.37c-74.055 0-84.639-10.557-84.639-84.543V96.491c0-73.987 10.584-84.544 84.639-84.544h75.37z"/></g><g opacity=".6"><linearGradient id="c" x1="1" x2="1" y1=".5" y2=".018" gradientTransform="matrix(198.291 0 0 181.197 28.855 35.521)" gradientUnits="userSpaceOnUse"><stop offset="0%" stop-opacity=".972" stop-color="#fff"/><stop offset="64.572%" stop-opacity=".916" stop-color="#fff"/><stop offset="100%" stop-opacity="0" stop-color="#fff"/></linearGradient><path fill="url(#c)" d="M224.059 35.521a27.321 27.321 0 0 1 3.086 3.238v7.018h-17.094V35.521h14.008zm-178.11 0v10.256H28.855v-7.018a27.321 27.321 0 0 1 3.086-3.238h14.008zm181.196 17.094v10.256h-17.094V52.615h17.094zm-181.196 0v10.256H28.855V52.615h17.094zm181.196 17.094v10.256h-17.094V69.709h17.094zm-181.196 0v10.256H28.855V69.709h17.094zm181.196 17.094v10.256h-17.094V86.803h17.094zm-181.196 0v10.256H28.855V86.803h17.094zm181.196 17.094v10.256h-17.094v-10.256h17.094zm-181.196 0v10.256H28.855v-10.256h17.094zm181.196 17.094v10.256h-17.094v-10.256h17.094zm-181.196 0v10.256H28.855v-10.256h17.094zm181.196 17.094v10.256h-17.094v-10.256h17.094zm-181.196 0v10.256H28.855v-10.256h17.094zm181.196 17.094v10.256h-17.094v-10.256h17.094zm-181.196 0v10.256H28.855v-10.256h17.094zm181.196 17.094v10.256h-17.094v-10.256h17.094zm-181.196 0v10.256H28.855v-10.256h17.094zm181.196 17.094v10.256h-17.094v-10.256h17.094zm-181.196 0v10.256H28.855v-10.256h17.094zm181.196 17.094v7.018a27.321 27.321 0 0 1-3.086 3.238h-14.008v-10.256h17.094zm-181.196 0v10.256H31.941a27.321 27.321 0 0 1-3.086-3.238v-7.018h17.094z"/></g><path fill="#527EB2" d="M191.206 12.882c-1.363-.105-2.604-.251-4.033-.334-7.377-.433-15.641-.598-24.899-.598H86.903c-8.22 0-15.381.199-22.109.531v227.276c6.728.332 13.889.531 22.109.531h75.371c9.258 0 17.522-.165 24.899-.598 1.429-.084 2.67-.229 4.033-.334V12.882z"/><path fill="#FDC92B" d="M131.818 183.709q-12.409 0-22.034-4.852-9.625-4.852-15.432-13.125-5.806-8.272-8.67-18.295-2.864-10.023-2.864-21.318 0-10.5 3.023-20.443 3.023-9.943 8.83-18.375 5.806-8.432 15.431-13.602 9.625-5.171 21.716-5.171 14.796 0 23.943 6.444 9.148 6.443 15.989 17.42l-18.932 10.818q-9.227-14-21-14-7.318 0-12.807 3.421-5.488 3.42-8.352 9.068-2.863 5.647-4.216 11.772-1.352 6.125-1.352 12.648 0 15.591 6.682 26.25t20.045 10.659q8.114 0 13.761-5.25 5.648-5.25 5.648-12.727v-1.273h-18.932v-20.364h40.887v16.387q0 20.681-11.614 32.295-11.614 11.613-29.75 11.613z"/><path fill="#FFF" d="M250.324 153.733v-57.24c0-9.249-.166-17.506-.599-24.875a197.869 197.869 0 0 0-.866-10.4c-.364-3.254-.808-6.298-1.345-9.147-.538-2.848-1.166-5.501-1.903-7.971-.736-2.469-1.58-4.753-2.541-6.869a39.523 39.523 0 0 0-3.252-5.849 33.28 33.28 0 0 0-4.045-4.907 33.279 33.279 0 0 0-4.91-4.037 39.65 39.65 0 0 0-5.857-3.25c-2.118-.959-4.405-1.8-6.877-2.535-2.472-.735-5.127-1.364-7.979-1.9-2.851-.536-5.899-.979-9.156-1.342a199.58 199.58 0 0 0-10.41-.863c-7.376-.433-15.641-.598-24.898-.598H90.314c-9.257 0-17.522.165-24.898.598-3.688.216-7.153.5-10.41.863-3.257.363-6.305.806-9.156 1.342-2.852.536-5.507 1.165-7.979 1.9-2.472.735-4.759 1.576-6.877 2.535a39.65 39.65 0 0 0-5.857 3.25 33.279 33.279 0 0 0-4.91 4.037 33.28 33.28 0 0 0-4.045 4.907 39.523 39.523 0 0 0-3.252 5.849c-.961 2.116-1.805 4.4-2.541 6.869-.737 2.47-1.365 5.123-1.903 7.971-.537 2.849-.981 5.893-1.345 9.147a197.869 197.869 0 0 0-.866 10.4c-.433 7.369-.599 15.626-.599 24.875v59.252c0 2.447.133 4.272.158 6.582 13.741 60.151 137.681-92.766 244.49-8.594z" opacity=".1"/><g opacity=".4"><linearGradient id="d" x1=".517" x2=".517" y2="1"><stop offset="0%" stop-color="#fff"/><stop offset="12.5%" stop-opacity=".098" stop-color="#fff"/><stop offset="92.5%" stop-opacity=".098"/><stop offset="100%" stop-opacity=".498"/></linearGradient><path fill="none" stroke="url(#d)" stroke-linecap="round" stroke-linejoin="round" stroke-width="4.077" d="M165.685 11.947c74.055 0 84.639 10.557 84.639 84.544v59.251c0 73.986-10.584 84.543-84.639 84.543h-75.37c-74.055 0-84.639-10.557-84.639-84.543V96.491c0-73.987 10.584-84.544 84.639-84.544h75.37z" vector-effect="non-scaling-stroke"/></g></svg>

<svg xmlns="http://www.w3.org/2000/svg" style="isolation:isolate" width="256" height="256" viewBox="0 0 256 256">
 <defs>
  <filter id="iz6ecL6RdpO1o51UR3Nh0mwghAeafS7r" width="270.648" height="254.338" x="-7.32" y="2.95" filterUnits="userSpaceOnUse">
   <feGaussianBlur xmlns="http://www.w3.org/2000/svg" in="SourceGraphic" stdDeviation="4.294"/>
   <feOffset xmlns="http://www.w3.org/2000/svg" dx="0" dy="4" result="pf_100_offsetBlur"/>
   <feFlood xmlns="http://www.w3.org/2000/svg" flood-opacity=".4"/>
   <feComposite xmlns="http://www.w3.org/2000/svg" in2="pf_100_offsetBlur" operator="in" result="pf_100_dropShadow"/>
   <feBlend xmlns="http://www.w3.org/2000/svg" in="SourceGraphic" in2="pf_100_dropShadow" mode="normal"/>
  </filter>
 </defs>
 <g filter="url(#iz6ecL6RdpO1o51UR3Nh0mwghAeafS7r)">
  <linearGradient id="_lgradient_125" x1=".5" x2=".5" y1="-.036" y2="1.036" gradientTransform="matrix(244.648,0,0,228.338,5.676,11.947)" gradientUnits="userSpaceOnUse">
   <stop offset="0%" style="stop-color:rgb(0,0,0)"/>
   <stop offset="100%" style="stop-color:rgb(51,51,51)"/>
  </linearGradient>
  <path fill="url(#_lgradient_125)" d="M 165.685 11.947 C 239.74 11.947 250.324 22.504 250.324 96.491 L 250.324 155.742 C 250.324 229.728 239.74 240.285 165.685 240.285 L 90.315 240.285 C 16.26 240.285 5.676 229.728 5.676 155.742 L 5.676 96.491 C 5.676 22.504 16.26 11.947 90.315 11.947 L 165.685 11.947 Z"/>
 </g>
 <g>
  <g opacity=".6">
   <linearGradient id="_lgradient_126" x1="1" x2="1" y1=".5" y2=".018" gradientTransform="matrix(198.291,0,0,181.197,28.855,35.521)" gradientUnits="userSpaceOnUse">
    <stop offset="0%" stop-opacity=".972" style="stop-color:rgb(255,255,255)"/>
    <stop offset="64.572%" stop-opacity=".916" style="stop-color:rgb(255,255,255)"/>
    <stop offset="100%" stop-opacity="0" style="stop-color:rgb(255,255,255)"/>
   </linearGradient>
   <path fill="url(#_lgradient_126)" d="M 224.059 35.521 C 225.174 36.514 226.201 37.591 227.145 38.759 L 227.145 45.777 L 210.051 45.777 L 210.051 35.521 L 224.059 35.521 Z M 45.949 35.521 L 45.949 45.777 L 28.855 45.777 L 28.855 38.759 C 29.799 37.591 30.826 36.514 31.941 35.521 L 45.949 35.521 Z M 227.145 52.615 L 227.145 62.871 L 210.051 62.871 L 210.051 52.615 L 227.145 52.615 Z M 45.949 52.615 L 45.949 62.871 L 28.855 62.871 L 28.855 52.615 L 45.949 52.615 Z M 227.145 69.709 L 227.145 79.965 L 210.051 79.965 L 210.051 69.709 L 227.145 69.709 Z M 45.949 69.709 L 45.949 79.965 L 28.855 79.965 L 28.855 69.709 L 45.949 69.709 Z M 227.145 86.803 L 227.145 97.059 L 210.051 97.059 L 210.051 86.803 L 227.145 86.803 Z M 45.949 86.803 L 45.949 97.059 L 28.855 97.059 L 28.855 86.803 L 45.949 86.803 Z M 227.145 103.897 L 227.145 114.153 L 210.051 114.153 L 210.051 103.897 L 227.145 103.897 Z M 45.949 103.897 L 45.949 114.153 L 28.855 114.153 L 28.855 103.897 L 45.949 103.897 Z M 227.145 120.991 L 227.145 131.247 L 210.051 131.247 L 210.051 120.991 L 227.145 120.991 Z M 45.949 120.991 L 45.949 131.247 L 28.855 131.247 L 28.855 120.991 L 45.949 120.991 Z M 227.145 138.085 L 227.145 148.341 L 210.051 148.341 L 210.051 138.085 L 227.145 138.085 Z M 45.949 138.085 L 45.949 148.341 L 28.855 148.341 L 28.855 138.085 L 45.949 138.085 Z M 227.145 155.179 L 227.145 165.435 L 210.051 165.435 L 210.051 155.179 L 227.145 155.179 Z M 45.949 155.179 L 45.949 165.435 L 28.855 165.435 L 28.855 155.179 L 45.949 155.179 Z M 227.145 172.273 L 227.145 182.529 L 210.051 182.529 L 210.051 172.273 L 227.145 172.273 Z M 45.949 172.273 L 45.949 182.529 L 28.855 182.529 L 28.855 172.273 L 45.949 172.273 Z M 227.145 189.367 L 227.145 199.623 L 210.051 199.623 L 210.051 189.367 L 227.145 189.367 Z M 45.949 189.367 L 45.949 199.623 L 28.855 199.623 L 28.855 189.367 L 45.949 189.367 Z M 227.145 206.461 L 227.145 213.479 C 226.201 214.647 225.174 215.724 224.059 216.717 L 210.051 216.717 L 210.051 206.461 L 227.145 206.461 Z M 45.949 206.461 L 45.949 216.717 L 31.941 216.717 C 30.826 215.724 29.799 214.647 28.855 213.479 L 28.855 206.461 L 45.949 206.461 Z"/>
  </g>
  <path fill="#527EB2" d="M 191.206 12.882 C 189.843 12.777 188.602 12.631 187.173 12.548 C 179.796 12.115 171.532 11.95 162.274 11.95 L 86.903 11.95 C 78.683 11.95 71.522 12.149 64.794 12.481 L 64.794 239.757 C 71.522 240.089 78.683 240.288 86.903 240.288 L 162.274 240.288 C 171.532 240.288 179.796 240.123 187.173 239.69 C 188.602 239.606 189.843 239.461 191.206 239.356 L 191.206 12.882 Z"/>
  <path fill="#FDC92B" d="M 131.818 183.709 L 131.818 183.709 L 131.818 183.709 Q 119.409 183.709 109.784 178.857 L 109.784 178.857 L 109.784 178.857 Q 100.159 174.005 94.352 165.732 L 94.352 165.732 L 94.352 165.732 Q 88.546 157.46 85.682 147.437 L 85.682 147.437 L 85.682 147.437 Q 82.818 137.414 82.818 126.119 L 82.818 126.119 L 82.818 126.119 Q 82.818 115.619 85.841 105.676 L 85.841 105.676 L 85.841 105.676 Q 88.864 95.733 94.671 87.301 L 94.671 87.301 L 94.671 87.301 Q 100.477 78.869 110.102 73.699 L 110.102 73.699 L 110.102 73.699 Q 119.727 68.528 131.818 68.528 L 131.818 68.528 L 131.818 68.528 Q 146.614 68.528 155.761 74.972 L 155.761 74.972 L 155.761 74.972 Q 164.909 81.415 171.75 92.392 L 171.75 92.392 L 152.818 103.21 L 152.818 103.21 Q 143.591 89.21 131.818 89.21 L 131.818 89.21 L 131.818 89.21 Q 124.5 89.21 119.011 92.631 L 119.011 92.631 L 119.011 92.631 Q 113.523 96.051 110.659 101.699 L 110.659 101.699 L 110.659 101.699 Q 107.796 107.346 106.443 113.471 L 106.443 113.471 L 106.443 113.471 Q 105.091 119.596 105.091 126.119 L 105.091 126.119 L 105.091 126.119 Q 105.091 141.71 111.773 152.369 L 111.773 152.369 L 111.773 152.369 Q 118.455 163.028 131.818 163.028 L 131.818 163.028 L 131.818 163.028 Q 139.932 163.028 145.579 157.778 L 145.579 157.778 L 145.579 157.778 Q 151.227 152.528 151.227 145.051 L 151.227 145.051 L 151.227 143.778 L 132.295 143.778 L 132.295 123.414 L 173.182 123.414 L 173.182 139.801 L 173.182 139.801 Q 173.182 160.482 161.568 172.096 L 161.568 172.096 L 161.568 172.096 Q 149.954 183.709 131.818 183.709 Z"/>
  <g opacity=".1">
   <path fill="#FFFFFF" d="M 250.324 153.733 L 250.324 96.493 C 250.324 87.244 250.158 78.987 249.725 71.618 C 249.508 67.933 249.224 64.471 248.859 61.218 C 248.495 57.964 248.051 54.92 247.514 52.071 C 246.976 49.223 246.348 46.57 245.611 44.1 C 244.875 41.631 244.031 39.347 243.07 37.231 C 242.109 35.116 241.03 33.17 239.818 31.382 C 238.607 29.594 237.262 27.962 235.773 26.475 C 234.285 24.989 232.654 23.648 230.863 22.438 C 229.073 21.228 227.124 20.148 225.006 19.188 C 222.888 18.229 220.601 17.388 218.129 16.653 C 215.657 15.918 213.002 15.289 210.15 14.753 C 207.299 14.217 204.251 13.774 200.994 13.411 C 197.737 13.048 194.272 12.764 190.584 12.548 C 183.208 12.115 174.943 11.95 165.686 11.95 L 90.314 11.95 C 81.057 11.95 72.792 12.115 65.416 12.548 C 61.728 12.764 58.263 13.048 55.006 13.411 C 51.749 13.774 48.701 14.217 45.85 14.753 C 42.998 15.289 40.343 15.918 37.871 16.653 C 35.399 17.388 33.112 18.229 30.994 19.188 C 28.876 20.148 26.927 21.228 25.137 22.438 C 23.346 23.648 21.715 24.989 20.227 26.475 C 18.738 27.962 17.393 29.594 16.182 31.382 C 14.97 33.17 13.891 35.116 12.93 37.231 C 11.969 39.347 11.125 41.631 10.389 44.1 C 9.652 46.57 9.024 49.223 8.486 52.071 C 7.949 54.92 7.505 57.964 7.141 61.218 C 6.776 64.471 6.492 67.933 6.275 71.618 C 5.842 78.987 5.676 87.244 5.676 96.493 L 5.676 155.745 C 5.676 158.192 5.809 160.017 5.834 162.327 C 19.575 222.478 143.515 69.561 250.324 153.733 Z"/>
  </g>
 </g>
 <g opacity=".4">
  <linearGradient id="_lgradient_127" x1=".517" x2=".517" y1="0" y2="1">
   <stop offset="0%" style="stop-color:rgb(255,255,255)"/>
   <stop offset="12.5%" stop-opacity=".098" style="stop-color:rgb(255,255,255)"/>
   <stop offset="92.5%" stop-opacity=".098" style="stop-color:rgb(0,0,0)"/>
   <stop offset="100%" stop-opacity=".498" style="stop-color:rgb(0,0,0)"/>
  </linearGradient>
  <path fill="none" stroke="url(#_lgradient_127)" stroke-linecap="round" stroke-linejoin="round" stroke-width="4.077" d="M 165.685 11.947 C 239.74 11.947 250.324 22.504 250.324 96.491 L 250.324 155.742 C 250.324 229.728 239.74 240.285 165.685 240.285 L 90.315 240.285 C 16.26 240.285 5.676 229.728 5.676 155.742 L 5.676 96.491 C 5.676 22.504 16.26 11.947 90.315 11.947 L 165.685 11.947 Z" vector-effect="non-scaling-stroke"/>
 </g>
</svg>
